X: 20
T:Polka'r Rheilffordd
T:The Railway Polka
M:2/4
L:1/16
Q:100
S:Robin Huw Bowen
R:Polka
A:Wales
Z:brian_martin12345@yahoo.com
K:D
A2|d2A^G A2d2|B2GF G2e2|c2A^G A2ag|fgag fgef|!
d2A^G A2d2|B2GF G2e2|c2A^G A2a2|f2d2 d2:||!
B2|A2c2 e2g2|g2f2- f2a2|a2(3aba e2g2|g2f2- f2a2|!
A2c2 e2g2|g2f2- f2a2|1a2(3aba e2c'2|b2 a4:||2a2(3aba c2e2|f2d2 d2||
